X: 327
T: Liao gege
L: 1/8
M: 2/4
K: F
f> d c c/ c/ [I:setbarnb 1]| 
c DF2 | 
F B B D/ D/ | 
C4 | 
f> d c c/ c/ | 
c DF2 | 
F> B B D/ D/ | 
F4 |]

@@@ Tune index: 9201
